X:26
T:Song of Death,The. Dix.26
M:6/8
L:1/8
Q:3/8=40
S:Anon. MS dated 1811, from Dixon collection, Holton le Moor, Lincs.
R:song
C:Words by Burns
O:England;Lincolnshire;Holton le Moor
Z:vmp.R.Greig 2012 <http://www.village-music-project.org.uk>
K:Bm
A|B> A (B/d/) e e a|f> e {f e}d {d}B2g|f {g}a ({g}f/e/) d d (F/^G/)|A3-A2 (B/d/)|!
w:Fare-well thou f-air day thou green earth and ye skies, Now gay with th-e broad sett–ing S-un! Fare
B> A (B/d/) e> f g|{g} f e d/ {d}B2g|(f/g/) ({f g}a/g/) (f/e/) d d (F/^G/)”bar line added”|A3-A2:|!
w:well loves a-nd friend-ships ye dear ten-der ties; our r-ace o-f ex–ist-ence i-s run
|:(f/g/)|a a d’ b b (b/=a/)|b> a g B2g|f> e (fa) b/ b2 f|{f} a3-a2 a|!
w:Th-ou grim king of ter-ror, th-ou life’s gloom-y foe, Go fright-en th-e co-ward and sl-ave! Go
b> a g a a g|f> e {f e} d B2g|f< a (f/e/) d d (F/^G/)|A3-A2:|
w:teach them to trem-ble, fell ty-rant but know, No ter-ror h-ast thou to th-e br-ave.
W:%
W:Thou strik’st the dull peasant, he sinks in the dark
W:Nor saves even the wreck of a Name:
W:Thou strikest the young hero, a glorious mark!
W:He falls in the blaze of his fame.
W:In the field of proud honour, our swords in our hands,
W:Our King and our country to save,
W:While victory shines on life’s last ebbing sands,
W:O, who would not die with the brave.

